X:1
T:Steele, 77.77.77
T:Steele, 77.77.77
T:Anonymous, 1893
T:Public Domain Courtesy of the Cyber Hymnal™
C:Anonymous, 1893
Z:Public Domain
Z:Courtesy of the Cyber Hymnal™
%%score ( 1 2 ) ( 3 4 )
L:1/8
Q:1/4=130
M:3/4
K:G
V:1 treble 
V:2 treble 
V:3 bass 
V:4 bass 
V:1
 [GB]4 [FB]2 | (B2 A2) [DG]2 | (G2 F2) [=CG]2 | [DA]6 | [DG]4 [DF]2 | (E2 [=Fd]2) [Ec]2 | %6
 [FB]4 [FA]2 | G6 | [DA]4 [DB]2 | [Dc]4 [DF]2 | [DG]4 [DA]2 | [DB]6 | [GB]4 [=Fd]2 | %13
 (d2 A2) [DF]2 | [DA]4 [^CE]2 | D6 | ([B,D]2 [DG]2) B2 | (B2 A2) [DG]2 | (G2 F2) [=CG]2 | [DA]6 | %20
 [DG]4 [DF]2 | (E2 [=Fd]2) [Ec]2 | [FB]4 [FA]2 | G6 |] %24
V:2
 x6 | E4 x2 | ^C4 x2 | x6 | x6 | E2 x4 | x6 | G6 | x6 | x6 | x6 | x6 | x6 | F4 x2 | x6 | (D4 C2) | %16
 x4 (GF) | E4 x2 | ^C4 x2 | x6 | x6 | E2 x4 | x6 | G6 |] %24
V:3
 [G,D]4 [G,D]2 | (D2 C2) [D,B,]2 | [E,A,]4 [E,G,]2 | F,6 | [B,,G,]4 [B,,G,]2 | (G,2 ^G,2) [C,A,]2 | %6
 [D,C]4 [D,C]2 | [G,B,]6 | [D,F,]4 [D,G,]2 | [D,A,]4 [D,C]2 | [E,B,]4 [F,A,]2 | G,6 | %12
 [G,D]4 [^G,B,]2 | A,4 A,2 | (E,2 F,2) [A,,G,]2 | ([D,F,]2 [E,G,]2 [F,A,]2) | [G,B,]4 [G,D]2 | %17
 (D2 C2) [D,B,]2 | [E,A,]4 [E,G,]2 | F,6 | [B,,G,]4 [B,,G,]2 | (G,2 ^G,2) [C,A,]2 | [D,C]4 [D,C]2 | %23
 [G,B,]6 |] %24
V:4
 x6 | C,4 x2 | x6 | (D,4 C,2) | x6 | C,4 x2 | x6 | x6 | x6 | x6 | x6 | G,6 | x6 | A,4 A,2 | %14
 A,,4 x2 | x6 | x6 | C,4 x2 | x6 | (D,4 C,2) | x6 | C,4 x2 | x6 | x6 |] %24

